;FLAVOR:Marlin
;TIME:10452
;Filament used: 12.4584m
;Layer height: 0.3
;MINX:98.6
;MINY:96.1
;MINZ:0.3
;MAXX:201.4
;MAXY:203.9
;MAXZ:6.975
;Generated with Cura_SteamEngine master
M82 ;absolute extrusion mode
G21                                        ; metric values 
G90                                        ; absolute positioning 
M82                                        ; set extruder to absolute mode 
M107                                       ; start with the fan off 
M140 S60           ; Start heating the bed 
G4 S60                                     ; wait 1 minute 
M104 S210         ; start heating the hot end 
M190 S60           ; wait for bed 
M109 S210         ; wait for hotend 
M300 S1000 P500                            ; BEEP heating done 
G28 X0 Y10 Z0                              ; move X/Y to min endstops 
M420 S1                                    ; Enable leveling 
M420 Z2.0                                  ; Set leveling fading height to 2 mm 
G0 Z0.15                                   ; lift nozzle a bit 
G92 E0                                     ; zero the extruded length 
G1 X50 E25 F500                            ; Extrude 25mm of filament in a 5cm line. 
G92 E0                                     ; zero the extruded length again 
G1 E-2 F500                                ; Retract a little 
G1 X120 F4000                              ; Quickly wipe away from the filament line`
G92 E0
G92 E0
G1 F1500 E-6
;LAYER_COUNT:23
;LAYER:0
M106 S76.5
M205 X10 Y10
G1 F600 Z0.375
G0 F6000 X100.533 Y97.935 Z0.375
M205 X8 Y8
;TYPE:SKIRT
G1 F600 Z0.3
G1 F1500 E0
G1 F1200 X101.071 Y97.464 E0.03567
G1 X101.659 Y97.056 E0.07138
G1 X102.288 Y96.716 E0.10705
G1 X102.952 Y96.449 E0.14276
G1 X103.641 Y96.257 E0.17844
G1 X104.347 Y96.143 E0.21412
G1 X105.151 Y96.103 E0.25428
G1 X105.33 Y96.1 E0.26321
G1 X194.293 Y96.1 E4.70159
G1 X195.083 Y96.111 E4.74101
G1 X195.796 Y96.161 E4.77667
G1 X196.5 Y96.29 E4.81238
G1 X197.184 Y96.498 E4.84805
G1 X197.841 Y96.78 E4.88372
G1 X198.463 Y97.134 E4.91942
G1 X199.041 Y97.555 E4.9551
G1 X199.569 Y98.038 E4.9908
G1 X200.039 Y98.576 E5.02644
G1 X200.447 Y99.164 E5.06214
G1 X200.786 Y99.794 E5.09784
G1 X201.053 Y100.457 E5.13349
G1 X201.244 Y101.147 E5.16921
G1 X201.357 Y101.853 E5.20488
G1 X201.397 Y102.65 E5.2447
G1 X201.4 Y102.83 E5.25368
G1 X201.4 Y196.843 E9.94401
G1 X201.391 Y197.57 E9.98028
G1 X201.342 Y198.284 E10.01598
G1 X201.214 Y198.988 E10.05168
G1 X201.008 Y199.673 E10.08737
G1 X200.727 Y200.33 E10.12302
G1 X200.374 Y200.953 E10.15874
G1 X199.954 Y201.532 E10.19443
G1 X199.472 Y202.06 E10.2301
G1 X198.935 Y202.532 E10.26577
G1 X198.347 Y202.94 E10.30147
G1 X197.718 Y203.281 E10.33717
G1 X197.055 Y203.549 E10.37284
G1 X196.366 Y203.741 E10.40853
G1 X195.66 Y203.856 E10.44422
G1 X194.849 Y203.897 E10.48473
G1 X194.67 Y203.9 E10.49366
G1 X105.624 Y203.899 E14.93618
G1 X104.926 Y203.89 E14.97101
G1 X104.213 Y203.841 E15.00666
G1 X103.509 Y203.713 E15.04236
G1 X102.824 Y203.507 E15.07805
G1 X102.167 Y203.225 E15.11372
G1 X101.545 Y202.872 E15.1494
G1 X100.966 Y202.452 E15.18509
G1 X100.437 Y201.97 E15.22079
G1 X99.966 Y201.432 E15.25646
G1 X99.558 Y200.845 E15.29213
G1 X99.218 Y200.215 E15.32784
G1 X98.95 Y199.552 E15.36352
G1 X98.758 Y198.863 E15.39921
G1 X98.644 Y198.157 E15.43489
G1 X98.602 Y197.331 E15.47615
G1 X98.6 Y197.158 E15.48478
G1 X98.601 Y103.087 E20.178
G1 X98.61 Y102.422 E20.21118
G1 X98.659 Y101.709 E20.24684
G1 X98.788 Y101.005 E20.28254
G1 X98.995 Y100.321 E20.3182
G1 X99.277 Y99.663 E20.35391
G1 X99.63 Y99.041 E20.38959
G1 X100.05 Y98.463 E20.42524
G1 X100.533 Y97.935 E20.46094
M205 X10 Y10
G0 F6000 X100.924 Y98.114
M205 X8 Y8
G1 F1200 X101.458 Y97.673 E20.49549
G1 X102.039 Y97.296 E20.53005
G1 X102.659 Y96.988 E20.56458
G1 X103.311 Y96.754 E20.59914
G1 X103.985 Y96.597 E20.63367
G1 X104.841 Y96.511 E20.67659
G1 X105.33 Y96.5 E20.70099
G1 X194.293 Y96.5 E25.13938
G1 X195.077 Y96.511 E25.17849
G1 X195.768 Y96.56 E25.21305
G1 X196.448 Y96.69 E25.24759
G1 X197.109 Y96.896 E25.28214
G1 X197.742 Y97.178 E25.31671
G1 X198.338 Y97.53 E25.35124
G1 X198.889 Y97.949 E25.38578
G1 X199.389 Y98.429 E25.42036
G1 X199.83 Y98.963 E25.45491
G1 X200.207 Y99.544 E25.48946
G1 X200.514 Y100.165 E25.52402
G1 X200.747 Y100.817 E25.55857
G1 X200.904 Y101.491 E25.59309
G1 X200.989 Y102.341 E25.63571
G1 X201 Y102.83 E25.66011
G1 X201 Y196.838 E30.35019
G1 X200.991 Y197.565 E30.38646
G1 X200.942 Y198.256 E30.42102
G1 X200.814 Y198.937 E30.45559
G1 X200.609 Y199.598 E30.49012
G1 X200.329 Y200.231 E30.52465
G1 X199.977 Y200.828 E30.55923
G1 X199.56 Y201.381 E30.59378
G1 X199.081 Y201.881 E30.62833
G1 X198.548 Y202.323 E30.66287
G1 X197.967 Y202.701 E30.69745
G1 X197.347 Y203.009 E30.73199
G1 X196.696 Y203.244 E30.76652
G1 X196.021 Y203.402 E30.80111
G1 X195.159 Y203.489 E30.84433
G1 X194.67 Y203.5 E30.86874
G1 X105.63 Y203.5 E35.31096
G1 X104.932 Y203.491 E35.34579
G1 X104.241 Y203.442 E35.38035
G1 X103.56 Y203.313 E35.41493
G1 X102.899 Y203.108 E35.44945
G1 X102.266 Y202.827 E35.484
G1 X101.669 Y202.476 E35.51856
G1 X101.117 Y202.058 E35.5531
G1 X100.617 Y201.579 E35.58764
G1 X100.175 Y201.045 E35.62223
G1 X99.798 Y200.465 E35.65674
G1 X99.49 Y199.844 E35.69132
G1 X99.255 Y199.193 E35.72585
G1 X99.098 Y198.518 E35.76043
G1 X99.011 Y197.653 E35.8038
G1 X99 Y197.158 E35.8285
G1 X99.001 Y103.093 E40.52142
G1 X99.01 Y102.428 E40.5546
G1 X99.059 Y101.737 E40.58917
G1 X99.187 Y101.057 E40.62369
G1 X99.394 Y100.395 E40.65829
G1 X99.675 Y99.762 E40.69284
G1 X100.027 Y99.166 E40.72738
G1 X100.445 Y98.614 E40.76192
G1 X100.924 Y98.114 E40.79647
M205 X10 Y10
G0 F6000 X101.314 Y98.301
M205 X8 Y8
G1 F1200 X101.843 Y97.89 E40.82989
G1 X102.416 Y97.545 E40.86326
G1 X103.027 Y97.272 E40.89664
G1 X103.665 Y97.073 E40.92999
G1 X104.323 Y96.951 E40.96337
G1 X104.852 Y96.911 E40.98984
G1 X105.33 Y96.9 E41.01369
G1 X194.293 Y96.9 E45.45208
G1 X195.071 Y96.911 E45.49089
G1 X195.738 Y96.96 E45.52426
G1 X196.395 Y97.089 E45.55766
G1 X197.031 Y97.295 E45.59102
G1 X197.639 Y97.576 E45.62443
G1 X198.208 Y97.926 E45.65776
G1 X198.732 Y98.343 E45.69117
G1 X199.202 Y98.819 E45.72455
G1 X199.612 Y99.347 E45.7579
G1 X199.957 Y99.921 E45.79131
G1 X200.23 Y100.532 E45.8247
G1 X200.428 Y101.171 E45.85807
G1 X200.549 Y101.829 E45.89145
G1 X200.589 Y102.353 E45.91767
G1 X200.6 Y102.83 E45.94147
G1 X200.6 Y196.833 E50.6313
G1 X200.591 Y197.56 E50.66757
G1 X200.542 Y198.228 E50.70099
G1 X200.415 Y198.884 E50.73432
G1 X200.21 Y199.521 E50.76771
G1 X199.931 Y200.129 E50.80108
G1 X199.581 Y200.699 E50.83446
G1 X199.165 Y201.224 E50.86787
G1 X198.69 Y201.695 E50.90125
G1 X198.163 Y202.106 E50.93459
G1 X197.59 Y202.452 E50.96798
G1 X196.98 Y202.726 E51.00135
G1 X196.341 Y202.926 E51.03475
G1 X195.683 Y203.048 E51.06814
G1 X195.148 Y203.089 E51.09491
G1 X194.67 Y203.1 E51.11876
G1 X105.635 Y203.1 E55.56074
G1 X104.937 Y203.091 E55.59556
G1 X104.27 Y203.042 E55.62893
G1 X103.613 Y202.914 E55.66232
G1 X102.976 Y202.709 E55.69571
G1 X102.368 Y202.429 E55.7291
G1 X101.798 Y202.079 E55.76247
G1 X101.274 Y201.663 E55.79585
G1 X100.803 Y201.188 E55.82923
G1 X100.392 Y200.66 E55.86261
G1 X100.047 Y200.087 E55.89598
G1 X99.773 Y199.477 E55.92934
G1 X99.573 Y198.838 E55.96274
G1 X99.452 Y198.18 E55.99612
G1 X99.411 Y197.642 E56.02304
G1 X99.4 Y197.158 E56.04719
G1 X99.401 Y103.098 E60.73987
G1 X99.41 Y102.433 E60.77305
G1 X99.459 Y101.766 E60.80641
G1 X99.587 Y101.109 E60.83981
G1 X99.792 Y100.473 E60.87314
G1 X100.072 Y99.865 E60.90654
G1 X100.423 Y99.295 E60.93994
G1 X100.839 Y98.771 E60.97332
G1 X101.314 Y98.301 E61.00665
M205 X10 Y10
G0 F6000 X101.232 Y98.935
M205 X8 Y8
G1 F1200 X101.703 Y98.495 E61.03881
G1 X102.226 Y98.117 E61.071
G1 X102.79 Y97.806 E61.10314
G1 X103.389 Y97.568 E61.13529
G1 X104.013 Y97.405 E61.16747
G1 X104.863 Y97.311 E61.21013
G1 X105.33 Y97.3 E61.23344
G1 X194.293 Y97.3 E65.67182
G1 X195.065 Y97.311 E65.71034
G1 X195.708 Y97.36 E65.74251
G1 X196.34 Y97.488 E65.77468
G1 X196.951 Y97.694 E65.80685
G1 X197.532 Y97.973 E65.83901
G1 X198.074 Y98.322 E65.87117
G1 X198.568 Y98.736 E65.90333
G1 X199.008 Y99.208 E65.93552
G1 X199.386 Y99.73 E65.96767
G1 X199.696 Y100.295 E65.99982
G1 X199.934 Y100.894 E66.03198
G1 X200.096 Y101.518 E66.06414
G1 X200.189 Y102.364 E66.10661
G1 X200.2 Y102.83 E66.12986
G1 X200.2 Y196.828 E70.81944
G1 X200.191 Y197.555 E70.85571
G1 X200.143 Y198.198 E70.88788
G1 X200.016 Y198.83 E70.92004
G1 X199.811 Y199.442 E70.95224
G1 X199.533 Y200.023 E70.98438
G1 X199.185 Y200.566 E71.01655
G1 X198.772 Y201.061 E71.04872
G1 X198.301 Y201.501 E71.08087
G1 X197.779 Y201.88 E71.11306
G1 X197.215 Y202.191 E71.14519
G1 X196.616 Y202.43 E71.17736
G1 X195.993 Y202.594 E71.2095
G1 X195.137 Y202.689 E71.25247
G1 X194.67 Y202.7 E71.27578
G1 X105.64 Y202.7 E75.7175
G1 X104.942 Y202.691 E75.75233
G1 X104.299 Y202.642 E75.7845
G1 X103.667 Y202.515 E75.81666
G1 X103.056 Y202.31 E75.84881
G1 X102.475 Y202.032 E75.88095
G1 X101.932 Y201.683 E75.91315
G1 X101.437 Y201.27 E75.94531
G1 X100.997 Y200.799 E75.97747
G1 X100.618 Y200.277 E76.00965
G1 X100.307 Y199.713 E76.04179
G1 X100.069 Y199.114 E76.07394
G1 X99.906 Y198.49 E76.10612
G1 X99.811 Y197.631 E76.14924
G1 X99.8 Y197.158 E76.17284
G1 X99.8 Y103.104 E80.86521
G1 X99.809 Y102.439 E80.89839
G1 X99.858 Y101.796 E80.93057
G1 X99.986 Y101.164 E80.96274
G1 X100.191 Y100.553 E80.99489
G1 X100.47 Y99.972 E81.02704
G1 X100.819 Y99.429 E81.05925
G1 X101.232 Y98.935 E81.09137
M205 X10 Y10
G1 F1500 E75.09137
G1 F600 Z0.375
;MESH:keypad_version2.stl
G0 F6000 X137.5 Y113.5 Z0.375
M205 X8 Y8
;TYPE:WALL-INNER
G1 F600 Z0.3
G1 F1500 E81.09137
G1 F1200 X137.5 Y122.684 E81.54956
G1 X162.5 Y122.684 E82.79682
G1 X162.5 Y113.5 E83.25501
G1 X137.5 Y113.5 E84.50227
M205 X10 Y10
G0 F6000 X137.9 Y113.9
M205 X8 Y8
G1 F1200 X137.9 Y122.284 E84.92054
G1 X162.1 Y122.284 E86.12789
G1 X162.1 Y113.9 E86.54617
G1 X137.9 Y113.9 E87.75351
M205 X10 Y10
G0 F6000 X138.3 Y114.3
M205 X8 Y8
;TYPE:WALL-OUTER
G1 F1200 X138.3 Y121.884 E88.13188
G1 X161.7 Y121.884 E89.29931
G1 X161.7 Y114.3 E89.67768
G1 X138.3 Y114.3 E90.84511
M205 X10 Y10
G0 F6000 X138.3 Y114.5
G0 X137.86 Y114.5
G1 F1500 E84.84511
G1 F600 Z0.375
G0 F6000 X194 Y196.5 Z0.375
M205 X8 Y8
;TYPE:WALL-INNER
G1 F600 Z0.3
G1 F1500 E90.84511
G1 F1200 X106 Y196.5 E95.23544
G1 X106 Y103.5 E99.87523
G1 X194 Y103.5 E104.26557
G1 X194 Y196.5 E108.90536
M205 X10 Y10
G0 F6000 X194.4 Y196.9
M205 X8 Y8
G1 F1200 X105.6 Y196.9 E113.33561
G1 X105.6 Y103.1 E118.01531
G1 X194.4 Y103.1 E122.44556
G1 X194.4 Y196.9 E127.12526
M205 X10 Y10
G0 F6000 X194.8 Y197.3
M205 X8 Y8
;TYPE:WALL-OUTER
G1 F1200 X105.2 Y197.3 E131.59542
G1 X105.2 Y102.7 E136.31504
G1 X194.8 Y102.7 E140.7852
G1 X194.8 Y197.3 E145.50481
M205 X10 Y10
G0 F6000 X194.6 Y197.3
G0 X194.36 Y196.86
G0 X193.61 Y196.11
M205 X8 Y8
;TYPE:SKIN
G1 F1200 X106.39 Y196.11 E149.85624
G1 X106.39 Y103.89 E154.45711
G1 X193.61 Y103.89 E158.80853
G1 X193.61 Y196.11 E163.40941
M205 X10 Y10
G1 F1500 E157.40941
G1 F600 Z0.375
G0 F6000 X162.89 Y123.074 Z0.375
M205 X8 Y8
G1 F600 Z0.3
G1 F1500 E163.40941
G1 F1200 X162.89 Y113.11 E163.90651
G1 X137.11 Y113.11 E165.19268
G1 X137.11 Y123.074 E165.68979
G1 X162.89 Y123.074 E166.97596
M205 X10 Y10
G1 F1500 E160.97596
G1 F600 Z0.375
G0 F6000 X193.43 Y104.617 Z0.375
M205 X8 Y8
G1 F600 Z0.3
G1 F1500 E166.97596
G1 F1200 X192.882 Y104.069 E167.01462
M205 X10 Y10
G0 F6000 X192.316 Y104.069
M205 X8 Y8
G1 F1200 X193.43 Y105.183 E167.09322
M205 X10 Y10
G0 F6000 X193.43 Y105.749
M205 X8 Y8
G1 F1200 X191.751 Y104.069 E167.21172
M205 X10 Y10
G0 F6000 X191.185 Y104.069
M205 X8 Y8
G1 F1200 X193.43 Y106.314 E167.37012
M205 X10 Y10
G0 F6000 X193.43 Y106.88
M205 X8 Y8
G1 F1200 X190.619 Y104.069 E167.56845
M205 X10 Y10
G0 F6000 X190.054 Y104.069
M205 X8 Y8
G1 F1200 X193.43 Y107.446 E167.80668
M205 X10 Y10
G0 F6000 X193.43 Y108.011
M205 X8 Y8
G1 F1200 X189.488 Y104.069 E168.08481
M205 X10 Y10
G0 F6000 X188.922 Y104.069
M205 X8 Y8
G1 F1200 X193.43 Y108.577 E168.40287
M205 X10 Y10
G0 F6000 X193.43 Y109.143
M205 X8 Y8
G1 F1200 X188.356 Y104.069 E168.76087
M205 X10 Y10
G0 F6000 X187.791 Y104.069
M205 X8 Y8
G1 F1200 X193.43 Y109.709 E169.15877
M205 X10 Y10
G0 F6000 X193.43 Y110.274
M205 X8 Y8
G1 F1200 X187.225 Y104.069 E169.59656
M205 X10 Y10
G0 F6000 X186.659 Y104.069
M205 X8 Y8
G1 F1200 X193.43 Y110.84 E170.07429
M205 X10 Y10
G0 F6000 X193.43 Y111.406
M205 X8 Y8
G1 F1200 X186.094 Y104.069 E170.59192
M205 X10 Y10
G0 F6000 X185.528 Y104.069
M205 X8 Y8
G1 F1200 X193.43 Y111.971 E171.14945
M205 X10 Y10
G0 F6000 X193.43 Y112.537
M205 X8 Y8
G1 F1200 X184.962 Y104.069 E171.74691
M205 X10 Y10
G0 F6000 X184.397 Y104.069
M205 X8 Y8
G1 F1200 X193.43 Y113.103 E172.38428
M205 X10 Y10
G0 F6000 X193.43 Y113.668
M205 X8 Y8
G1 F1200 X183.831 Y104.069 E173.06154
M205 X10 Y10
G0 F6000 X183.265 Y104.069
M205 X8 Y8
G1 F1200 X193.43 Y114.234 E173.77873
M205 X10 Y10
G0 F6000 X193.43 Y114.8
M205 X8 Y8
G1 F1200 X182.7 Y104.069 E174.53583
M205 X10 Y10
G0 F6000 X182.134 Y104.069
M205 X8 Y8
G1 F1200 X193.43 Y115.365 E175.33282
M205 X10 Y10
G0 F6000 X193.43 Y115.931
M205 X8 Y8
G1 F1200 X181.568 Y104.069 E176.16975
M205 X10 Y10
G0 F6000 X181.003 Y104.069
M205 X8 Y8
G1 F1200 X193.43 Y116.497 E177.04658
M205 X10 Y10
G0 F6000 X193.43 Y117.062
M205 X8 Y8
G1 F1200 X180.437 Y104.069 E177.9633
M205 X10 Y10
G0 F6000 X179.871 Y104.069
M205 X8 Y8
G1 F1200 X193.43 Y117.628 E178.91996
M205 X10 Y10
G0 F6000 X193.43 Y118.194
M205 X8 Y8
G1 F1200 X179.306 Y104.069 E179.91652
M205 X10 Y10
G0 F6000 X178.74 Y104.069
M205 X8 Y8
G1 F1200 X193.43 Y118.759 E180.95298
M205 X10 Y10
G0 F6000 X193.43 Y119.325
M205 X8 Y8
G1 F1200 X178.174 Y104.069 E182.02938
M205 X10 Y10
G0 F6000 X177.608 Y104.069
M205 X8 Y8
G1 F1200 X193.43 Y119.891 E183.1457
M205 X10 Y10
G0 F6000 X193.43 Y120.457
M205 X8 Y8
G1 F1200 X177.043 Y104.069 E184.30193
M205 X10 Y10
G0 F6000 X176.477 Y104.069
M205 X8 Y8
G1 F1200 X193.43 Y121.022 E185.49806
M205 X10 Y10
G0 F6000 X193.43 Y121.588
M205 X8 Y8
G1 F1200 X175.911 Y104.069 E186.73412
M205 X10 Y10
G0 F6000 X175.346 Y104.069
M205 X8 Y8
G1 F1200 X193.43 Y122.154 E188.01008
M205 X10 Y10
G0 F6000 X193.43 Y122.719
M205 X8 Y8
G1 F1200 X174.78 Y104.069 E189.32593
M205 X10 Y10
G0 F6000 X174.214 Y104.069
M205 X8 Y8
G1 F1200 X193.43 Y123.285 E190.68173
M205 X10 Y10
G0 F6000 X193.43 Y123.851
M205 X8 Y8
G1 F1200 X173.649 Y104.069 E192.07742
M205 X10 Y10
G0 F6000 X173.083 Y104.069
M205 X8 Y8
G1 F1200 X193.43 Y124.416 E193.51301
M205 X10 Y10
G0 F6000 X193.43 Y124.982
M205 X8 Y8
G1 F1200 X172.517 Y104.069 E194.98853
M205 X10 Y10
G0 F6000 X171.952 Y104.069
M205 X8 Y8
G1 F1200 X193.43 Y125.548 E196.50396
M205 X10 Y10
G0 F6000 X193.43 Y126.113
M205 X8 Y8
G1 F1200 X171.386 Y104.069 E198.05928
M205 X10 Y10
G0 F6000 X170.82 Y104.069
M205 X8 Y8
G1 F1200 X193.43 Y126.679 E199.65454
M205 X10 Y10
G0 F6000 X193.43 Y127.245
M205 X8 Y8
G1 F1200 X170.255 Y104.069 E201.2897
M205 X10 Y10
G0 F6000 X169.689 Y104.069
M205 X8 Y8
G1 F1200 X193.43 Y127.81 E202.96475
M205 X10 Y10
G0 F6000 X193.43 Y128.376
M205 X8 Y8
G1 F1200 X169.123 Y104.069 E204.67974
M205 X10 Y10
G0 F6000 X168.557 Y104.069
M205 X8 Y8
G1 F1200 X193.43 Y128.942 E206.43467
M205 X10 Y10
G0 F6000 X193.43 Y129.508
M205 X8 Y8
G1 F1200 X167.992 Y104.069 E208.22949
M205 X10 Y10
G0 F6000 X167.426 Y104.069
M205 X8 Y8
G1 F1200 X193.43 Y130.073 E210.06421
M205 X10 Y10
G0 F6000 X193.43 Y130.639
M205 X8 Y8
G1 F1200 X166.86 Y104.069 E211.93887
M205 X10 Y10
G0 F6000 X166.295 Y104.069
M205 X8 Y8
G1 F1200 X193.43 Y131.205 E213.85343
M205 X10 Y10
G0 F6000 X193.43 Y131.77
M205 X8 Y8
G1 F1200 X165.729 Y104.069 E215.80788
M205 X10 Y10
G0 F6000 X165.163 Y104.069
M205 X8 Y8
G1 F1200 X193.43 Y132.336 E217.80227
M205 X10 Y10
G0 F6000 X193.43 Y132.902
M205 X8 Y8
G1 F1200 X164.598 Y104.069 E219.83656
M205 X10 Y10
G0 F6000 X164.032 Y104.069
M205 X8 Y8
G1 F1200 X193.43 Y133.467 E221.91075
M205 X10 Y10
G0 F6000 X193.43 Y134.033
M205 X8 Y8
G1 F1200 X163.466 Y104.069 E224.02487
M205 X10 Y10
G0 F6000 X162.901 Y104.069
M205 X8 Y8
G1 F1200 X193.43 Y134.599 E226.17889
M205 X10 Y10
G0 F6000 X193.43 Y135.164
