;FLAVOR:Marlin
;TIME:7151
;Filament used: 7.78125m
;Layer height: 0.3
;MINX:98.6
;MINY:116.1
;MINZ:0.3
;MAXX:201.4
;MAXY:183.9
;MAXZ:20.475
;Generated with Cura_SteamEngine master
M82 ;absolute extrusion mode
G21                                        ; metric values 
G90                                        ; absolute positioning 
M82                                        ; set extruder to absolute mode 
M107                                       ; start with the fan off 
M140 S60           ; Start heating the bed 
G4 S60                                     ; wait 1 minute 
M104 S210         ; start heating the hot end 
M190 S60           ; wait for bed 
M109 S210         ; wait for hotend 
M300 S1000 P500                            ; BEEP heating done 
G28 X0 Y10 Z0                              ; move X/Y to min endstops 
M420 S1                                    ; Enable leveling 
M420 Z2.0                                  ; Set leveling fading height to 2 mm 
G0 Z0.15                                   ; lift nozzle a bit 
G92 E0                                     ; zero the extruded length 
G1 X50 E25 F500                            ; Extrude 25mm of filament in a 5cm line. 
G92 E0                                     ; zero the extruded length again 
G1 E-2 F500                                ; Retract a little 
G1 X120 F4000                              ; Quickly wipe away from the filament line`
G92 E0
G92 E0
G1 F1500 E-6
;LAYER_COUNT:68
;LAYER:0
M106 S76.5
M205 X10 Y10
G1 F600 Z0.375
G0 F6000 X101.071 Y117.464 Z0.375
M205 X8 Y8
;TYPE:SKIRT
G1 F600 Z0.3
G1 F1500 E0
G1 F1200 X101.659 Y117.056 E0.03571
G1 X102.288 Y116.716 E0.07138
G1 X102.952 Y116.449 E0.10708
G1 X103.641 Y116.257 E0.14277
G1 X104.347 Y116.143 E0.17845
G1 X105.151 Y116.103 E0.21861
G1 X105.33 Y116.1 E0.22754
G1 X194.293 Y116.1 E4.66592
G1 X195.083 Y116.111 E4.70534
G1 X195.796 Y116.161 E4.741
G1 X196.5 Y116.29 E4.7767
G1 X197.184 Y116.498 E4.81237
G1 X197.841 Y116.78 E4.84804
G1 X198.463 Y117.134 E4.88375
G1 X199.041 Y117.555 E4.91942
G1 X199.569 Y118.038 E4.95512
G1 X200.039 Y118.576 E4.99076
G1 X200.447 Y119.164 E5.02647
G1 X200.786 Y119.794 E5.06216
G1 X201.053 Y120.457 E5.09782
G1 X201.244 Y121.147 E5.13354
G1 X201.357 Y121.853 E5.16921
G1 X201.397 Y122.65 E5.20902
G1 X201.4 Y122.83 E5.218
G1 X201.4 Y176.843 E7.91272
G1 X201.391 Y177.57 E7.949
G1 X201.342 Y178.284 E7.9847
G1 X201.214 Y178.988 E8.0204
G1 X201.008 Y179.673 E8.05609
G1 X200.727 Y180.33 E8.09174
G1 X200.374 Y180.953 E8.12746
G1 X199.954 Y181.532 E8.16315
G1 X199.472 Y182.06 E8.19882
G1 X198.935 Y182.532 E8.23448
G1 X198.347 Y182.94 E8.27019
G1 X197.718 Y183.281 E8.30589
G1 X197.055 Y183.549 E8.34156
G1 X196.366 Y183.741 E8.37725
G1 X195.66 Y183.856 E8.41293
G1 X194.849 Y183.897 E8.45345
G1 X194.67 Y183.9 E8.46238
G1 X105.624 Y183.899 E12.9049
G1 X104.926 Y183.89 E12.93973
G1 X104.213 Y183.841 E12.97538
G1 X103.509 Y183.713 E13.01108
G1 X102.824 Y183.507 E13.04677
G1 X102.167 Y183.225 E13.08244
G1 X101.545 Y182.872 E13.11812
G1 X100.966 Y182.452 E13.1538
G1 X100.437 Y181.97 E13.18951
G1 X99.966 Y181.432 E13.22518
G1 X99.558 Y180.845 E13.26085
G1 X99.218 Y180.215 E13.29656
G1 X98.95 Y179.552 E13.33224
G1 X98.758 Y178.863 E13.36792
G1 X98.644 Y178.157 E13.4036
G1 X98.602 Y177.331 E13.44487
G1 X98.6 Y177.158 E13.4535
G1 X98.601 Y123.087 E16.15111
G1 X98.61 Y122.422 E16.18429
G1 X98.659 Y121.709 E16.21995
G1 X98.788 Y121.005 E16.25565
G1 X98.995 Y120.321 E16.29131
G1 X99.277 Y119.663 E16.32702
G1 X99.63 Y119.041 E16.3627
G1 X100.05 Y118.463 E16.39835
G1 X100.533 Y117.935 E16.43405
G1 X101.071 Y117.464 E16.46972
M205 X10 Y10
G0 F6000 X101.458 Y117.673
M205 X8 Y8
G1 F1200 X102.039 Y117.296 E16.50428
G1 X102.659 Y116.988 E16.53882
G1 X103.311 Y116.754 E16.57338
G1 X103.985 Y116.597 E16.6079
G1 X104.841 Y116.511 E16.65082
G1 X105.33 Y116.5 E16.67523
G1 X194.293 Y116.5 E21.11361
G1 X195.077 Y116.511 E21.15273
G1 X195.768 Y116.56 E21.18729
G1 X196.448 Y116.69 E21.22183
G1 X197.109 Y116.896 E21.25637
G1 X197.742 Y117.178 E21.29094
G1 X198.338 Y117.53 E21.32547
G1 X198.889 Y117.949 E21.36001
G1 X199.389 Y118.429 E21.39459
G1 X199.83 Y118.963 E21.42914
G1 X200.207 Y119.544 E21.46369
G1 X200.514 Y120.165 E21.49825
G1 X200.747 Y120.817 E21.5328
G1 X200.904 Y121.491 E21.56732
G1 X200.989 Y122.341 E21.60994
G1 X201 Y122.83 E21.63434
G1 X201 Y176.838 E24.32881
G1 X200.991 Y177.565 E24.36509
G1 X200.942 Y178.256 E24.39965
G1 X200.814 Y178.937 E24.43422
G1 X200.609 Y179.598 E24.46875
G1 X200.329 Y180.231 E24.50328
G1 X199.977 Y180.828 E24.53785
G1 X199.56 Y181.381 E24.57241
G1 X199.081 Y181.881 E24.60695
G1 X198.548 Y182.323 E24.6415
G1 X197.967 Y182.701 E24.67608
G1 X197.347 Y183.009 E24.71062
G1 X196.696 Y183.244 E24.74515
G1 X196.021 Y183.402 E24.77973
G1 X195.159 Y183.489 E24.82296
G1 X194.67 Y183.5 E24.84736
G1 X105.63 Y183.5 E29.28958
G1 X104.932 Y183.491 E29.32441
G1 X104.241 Y183.442 E29.35897
G1 X103.56 Y183.313 E29.39355
G1 X102.899 Y183.108 E29.42808
G1 X102.266 Y182.827 E29.46263
G1 X101.669 Y182.476 E29.49718
G1 X101.117 Y182.058 E29.53172
G1 X100.617 Y181.579 E29.56627
G1 X100.175 Y181.045 E29.60085
G1 X99.798 Y180.465 E29.63536
G1 X99.49 Y179.844 E29.66995
G1 X99.255 Y179.193 E29.70448
G1 X99.098 Y178.518 E29.73905
G1 X99.011 Y177.653 E29.78242
G1 X99 Y177.158 E29.80713
G1 X99.001 Y123.093 E32.50444
G1 X99.01 Y122.428 E32.53762
G1 X99.059 Y121.737 E32.57218
G1 X99.187 Y121.057 E32.6067
G1 X99.394 Y120.395 E32.64131
G1 X99.675 Y119.762 E32.67586
G1 X100.027 Y119.166 E32.71039
G1 X100.445 Y118.614 E32.74494
G1 X100.924 Y118.114 E32.77948
G1 X101.458 Y117.673 E32.81403
M205 X10 Y10
G0 F6000 X101.314 Y118.301
M205 X8 Y8
G1 F1200 X101.843 Y117.89 E32.84745
G1 X102.416 Y117.545 E32.88082
G1 X103.027 Y117.272 E32.91421
G1 X103.665 Y117.073 E32.94755
G1 X104.323 Y116.951 E32.98094
G1 X104.852 Y116.911 E33.00741
G1 X105.33 Y116.9 E33.03126
G1 X194.293 Y116.9 E37.46964
G1 X195.071 Y116.911 E37.50846
G1 X195.738 Y116.96 E37.54183
G1 X196.395 Y117.089 E37.57523
G1 X197.031 Y117.295 E37.60859
G1 X197.639 Y117.576 E37.642
G1 X198.208 Y117.926 E37.67533
G1 X198.732 Y118.343 E37.70874
G1 X199.202 Y118.819 E37.74211
G1 X199.612 Y119.347 E37.77546
G1 X199.957 Y119.921 E37.80888
G1 X200.23 Y120.532 E37.84226
G1 X200.428 Y121.171 E37.87564
G1 X200.549 Y121.829 E37.90902
G1 X200.589 Y122.353 E37.93524
G1 X200.6 Y122.83 E37.95904
G1 X200.6 Y176.833 E40.65326
G1 X200.591 Y177.56 E40.68953
G1 X200.542 Y178.228 E40.72295
G1 X200.415 Y178.884 E40.75628
G1 X200.21 Y179.521 E40.78967
G1 X199.931 Y180.129 E40.82304
G1 X199.581 Y180.699 E40.85641
G1 X199.165 Y181.224 E40.88983
G1 X198.69 Y181.695 E40.92321
G1 X198.163 Y182.106 E40.95655
G1 X197.59 Y182.452 E40.98994
G1 X196.98 Y182.726 E41.02331
G1 X196.341 Y182.926 E41.05671
G1 X195.683 Y183.048 E41.0901
G1 X195.148 Y183.089 E41.11687
G1 X194.67 Y183.1 E41.14072
G1 X105.635 Y183.1 E45.58269
G1 X104.937 Y183.091 E45.61752
G1 X104.27 Y183.042 E45.65089
G1 X103.613 Y182.914 E45.68428
G1 X102.976 Y182.709 E45.71767
G1 X102.368 Y182.429 E45.75106
G1 X101.798 Y182.079 E45.78443
G1 X101.274 Y181.663 E45.81781
G1 X100.803 Y181.188 E45.85119
G1 X100.392 Y180.66 E45.88457
G1 X100.047 Y180.087 E45.91794
G1 X99.773 Y179.477 E45.9513
G1 X99.573 Y178.838 E45.9847
G1 X99.452 Y178.18 E46.01808
G1 X99.411 Y177.642 E46.045
G1 X99.4 Y177.158 E46.06915
G1 X99.401 Y123.098 E48.76622
G1 X99.41 Y122.433 E48.7994
G1 X99.459 Y121.766 E48.83276
G1 X99.587 Y121.109 E48.86616
G1 X99.792 Y120.473 E48.8995
G1 X100.072 Y119.865 E48.93289
G1 X100.423 Y119.295 E48.96629
G1 X100.839 Y118.771 E48.99967
G1 X101.314 Y118.301 E49.033
M205 X10 Y10
G0 F6000 X101.703 Y118.495
M205 X8 Y8
G1 F1200 X102.226 Y118.117 E49.0652
G1 X102.79 Y117.806 E49.09733
G1 X103.389 Y117.568 E49.12949
G1 X104.013 Y117.405 E49.16166
G1 X104.863 Y117.311 E49.20433
G1 X105.33 Y117.3 E49.22763
G1 X194.293 Y117.3 E53.66602
G1 X195.065 Y117.311 E53.70454
G1 X195.708 Y117.36 E53.73671
G1 X196.34 Y117.488 E53.76888
G1 X196.951 Y117.694 E53.80105
G1 X197.532 Y117.973 E53.8332
G1 X198.074 Y118.322 E53.86536
G1 X198.568 Y118.736 E53.89752
G1 X199.008 Y119.208 E53.92971
G1 X199.386 Y119.73 E53.96187
G1 X199.696 Y120.295 E53.99402
G1 X199.934 Y120.894 E54.02618
G1 X200.096 Y121.518 E54.05834
G1 X200.189 Y122.364 E54.1008
G1 X200.2 Y122.83 E54.12406
G1 X200.2 Y176.828 E56.81803
G1 X200.191 Y177.555 E56.8543
G1 X200.143 Y178.198 E56.88647
G1 X200.016 Y178.83 E56.91863
G1 X199.811 Y179.442 E56.95083
G1 X199.533 Y180.023 E56.98296
G1 X199.185 Y180.566 E57.01514
G1 X198.772 Y181.061 E57.0473
G1 X198.301 Y181.501 E57.07946
G1 X197.779 Y181.88 E57.11164
G1 X197.215 Y182.191 E57.14377
G1 X196.616 Y182.43 E57.17595
G1 X195.993 Y182.594 E57.20809
G1 X195.137 Y182.689 E57.25106
G1 X194.67 Y182.7 E57.27436
G1 X105.64 Y182.7 E61.71609
G1 X104.942 Y182.691 E61.75091
G1 X104.299 Y182.642 E61.78309
G1 X103.667 Y182.515 E61.81525
G1 X103.056 Y182.31 E61.8474
G1 X102.475 Y182.032 E61.87953
G1 X101.932 Y181.683 E61.91174
G1 X101.437 Y181.27 E61.9439
G1 X100.997 Y180.799 E61.97606
G1 X100.618 Y180.277 E62.00824
G1 X100.307 Y179.713 E62.04037
G1 X100.069 Y179.114 E62.07253
G1 X99.906 Y178.49 E62.10471
G1 X99.811 Y177.631 E62.14782
G1 X99.8 Y177.158 E62.17143
G1 X99.8 Y123.104 E64.86819
G1 X99.809 Y122.439 E64.90137
G1 X99.858 Y121.796 E64.93354
G1 X99.986 Y121.164 E64.96571
G1 X100.191 Y120.553 E64.99787
G1 X100.47 Y119.972 E65.03002
G1 X100.819 Y119.429 E65.06223
G1 X101.232 Y118.935 E65.09435
G1 X101.703 Y118.495 E65.12651
M205 X10 Y10
G1 F1500 E59.12651
G1 F600 Z0.375
;MESH:NETZ_Display_blende.stl
G0 F6000 X126 Y128.5 Z0.375
M205 X8 Y8
;TYPE:WALL-INNER
G1 F600 Z0.3
G1 F1500 E65.12651
G1 F1200 X126 Y163.5 E66.87266
G1 X170 Y163.5 E69.06783
G1 X170 Y128.5 E70.81399
G1 X126 Y128.5 E73.00916
M205 X10 Y10
G0 F6000 X126.4 Y128.9
M205 X8 Y8
G1 F1200 X126.4 Y163.1 E74.7154
G1 X169.6 Y163.1 E76.87066
G1 X169.6 Y128.9 E78.57691
G1 X126.4 Y128.9 E80.73216
M205 X10 Y10
G0 F6000 X126.8 Y129.3
M205 X8 Y8
;TYPE:WALL-OUTER
G1 F1200 X126.8 Y162.7 E82.3985
G1 X169.2 Y162.7 E84.51384
G1 X169.2 Y129.3 E86.18017
G1 X126.8 Y129.3 E88.29552
M205 X10 Y10
G0 F6000 X126.8 Y129.5
G0 X126.36 Y129.5
G1 F1500 E82.29552
G1 F600 Z0.375
G0 F6000 X194 Y176.5 Z0.375
M205 X8 Y8
;TYPE:WALL-INNER
G1 F600 Z0.3
G1 F1500 E88.29552
G1 F1200 X106 Y176.5 E92.68585
G1 X106 Y123.5 E95.33004
G1 X194 Y123.5 E99.72037
G1 X194 Y176.5 E102.36455
M205 X10 Y10
G0 F6000 X194.4 Y176.9
M205 X8 Y8
G1 F1200 X105.6 Y176.9 E106.7948
G1 X105.6 Y123.1 E109.4789
G1 X194.4 Y123.1 E113.90915
G1 X194.4 Y176.9 E116.59324
M205 X10 Y10
G0 F6000 X194.8 Y177.3
M205 X8 Y8
;TYPE:WALL-OUTER
G1 F1200 X105.2 Y177.3 E121.0634
G1 X105.2 Y122.7 E123.78741
G1 X194.8 Y122.7 E128.25757
G1 X194.8 Y177.3 E130.98157
M205 X10 Y10
G0 F6000 X194.6 Y177.3
G0 X194.36 Y176.86
G0 X193.61 Y176.11
M205 X8 Y8
;TYPE:SKIN
G1 F1200 X106.39 Y176.11 E135.333
G1 X106.39 Y123.89 E137.93826
G1 X193.61 Y123.89 E142.28969
G1 X193.61 Y176.11 E144.89495
M205 X10 Y10
G1 F1500 E138.89495
G1 F600 Z0.375
G0 F6000 X170.39 Y163.89 Z0.375
M205 X8 Y8
G1 F600 Z0.3
G1 F1500 E144.89495
G1 F1200 X170.39 Y128.11 E146.68003
G1 X125.61 Y128.11 E148.91411
G1 X125.61 Y163.89 E150.69918
G1 X170.39 Y163.89 E152.93326
M205 X10 Y10
G1 F1500 E146.93326
G1 F600 Z0.375
G0 F6000 X193.429 Y124.415 Z0.375
M205 X8 Y8
G1 F600 Z0.3
G1 F1500 E152.93326
G1 F1200 X193.083 Y124.07 E152.95764
M205 X10 Y10
G0 F6000 X192.518 Y124.07
M205 X8 Y8
G1 F1200 X193.429 Y124.981 E153.02192
M205 X10 Y10
G0 F6000 X193.429 Y125.546
M205 X8 Y8
G1 F1200 X191.952 Y124.07 E153.12609
M205 X10 Y10
G0 F6000 X191.386 Y124.07
M205 X8 Y8
G1 F1200 X193.429 Y126.112 E153.2702
M205 X10 Y10
G0 F6000 X193.429 Y126.678
M205 X8 Y8
G1 F1200 X190.821 Y124.07 E153.45421
M205 X10 Y10
G0 F6000 X190.255 Y124.07
M205 X8 Y8
G1 F1200 X193.429 Y127.243 E153.67812
M205 X10 Y10
G0 F6000 X193.429 Y127.809
M205 X8 Y8
G1 F1200 X189.689 Y124.07 E153.94196
M205 X10 Y10
G0 F6000 X189.124 Y124.07
M205 X8 Y8
G1 F1200 X193.429 Y128.375 E154.2457
M205 X10 Y10
G0 F6000 X193.429 Y128.94
M205 X8 Y8
G1 F1200 X188.558 Y124.07 E154.58934
M205 X10 Y10
G0 F6000 X187.992 Y124.07
M205 X8 Y8
G1 F1200 X193.429 Y129.506 E154.97291
M205 X10 Y10
G0 F6000 X193.429 Y130.072
M205 X8 Y8
G1 F1200 X187.427 Y124.07 E155.39639
M205 X10 Y10
G0 F6000 X186.861 Y124.07
M205 X8 Y8
G1 F1200 X193.429 Y130.637 E155.85976
M205 X10 Y10
G0 F6000 X193.429 Y131.203
M205 X8 Y8
G1 F1200 X186.295 Y124.07 E156.36307
M205 X10 Y10
G0 F6000 X185.73 Y124.07
M205 X8 Y8
G1 F1200 X193.429 Y131.769 E156.90627
M205 X10 Y10
G0 F6000 X193.429 Y132.335
M205 X8 Y8
G1 F1200 X185.164 Y124.07 E157.48941
M205 X10 Y10
G0 F6000 X184.598 Y124.07
M205 X8 Y8
G1 F1200 X193.429 Y132.9 E158.11245
M205 X10 Y10
G0 F6000 X193.429 Y133.466
M205 X8 Y8
G1 F1200 X184.033 Y124.07 E158.77539
M205 X10 Y10
G0 F6000 X183.467 Y124.07
M205 X8 Y8
G1 F1200 X193.429 Y134.032 E159.47826
M205 X10 Y10
G0 F6000 X193.429 Y134.597
M205 X8 Y8
G1 F1200 X182.901 Y124.07 E160.22104
M205 X10 Y10
G0 F6000 X182.335 Y124.07
M205 X8 Y8
G1 F1200 X193.429 Y135.163 E161.00374
M205 X10 Y10
G0 F6000 X193.429 Y135.729
M205 X8 Y8
G1 F1200 X181.77 Y124.07 E161.82635
M205 X10 Y10
G0 F6000 X181.204 Y124.07
M205 X8 Y8
G1 F1200 X193.429 Y136.294 E162.68885
M205 X10 Y10
G0 F6000 X193.429 Y136.86
M205 X8 Y8
G1 F1200 X180.638 Y124.07 E163.59129
M205 X10 Y10
G0 F6000 X180.073 Y124.07
M205 X8 Y8
G1 F1200 X193.429 Y137.426 E164.53363
M205 X10 Y10
G0 F6000 X193.429 Y137.991
M205 X8 Y8
G1 F1200 X179.507 Y124.07 E165.51587
M205 X10 Y10
G0 F6000 X178.941 Y124.07
M205 X8 Y8
G1 F1200 X193.429 Y138.557 E166.53804
M205 X10 Y10
G0 F6000 X193.429 Y139.123
M205 X8 Y8
G1 F1200 X178.376 Y124.07 E167.60011
M205 X10 Y10
G0 F6000 X177.81 Y124.07
M205 X8 Y8
G1 F1200 X193.429 Y139.688 E168.70208
M205 X10 Y10
G0 F6000 X193.429 Y140.254
M205 X8 Y8
G1 F1200 X177.244 Y124.07 E169.84398
M205 X10 Y10
G0 F6000 X176.679 Y124.07
M205 X8 Y8
G1 F1200 X193.429 Y140.82 E171.02579
M205 X10 Y10
G0 F6000 X193.429 Y141.386
M205 X8 Y8
G1 F1200 X176.113 Y124.07 E172.24752
M205 X10 Y10
G0 F6000 X175.547 Y124.07
M205 X8 Y8
G1 F1200 X193.429 Y141.951 E173.50916
M205 X10 Y10
G0 F6000 X193.429 Y142.517
M205 X8 Y8
G1 F1200 X174.982 Y124.07 E174.81069
M205 X10 Y10
G0 F6000 X174.416 Y124.07
M205 X8 Y8
G1 F1200 X193.429 Y143.083 E176.15216
M205 X10 Y10
G0 F6000 X193.429 Y143.648
M205 X8 Y8
G1 F1200 X173.85 Y124.07 E177.53353
M205 X10 Y10
G0 F6000 X173.285 Y124.07
M205 X8 Y8
G1 F1200 X193.429 Y144.214 E178.9548
M205 X10 Y10
G0 F6000 X193.429 Y144.78
M205 X8 Y8
G1 F1200 X172.719 Y124.07 E180.416
M205 X10 Y10
G0 F6000 X172.153 Y124.07
M205 X8 Y8
G1 F1200 X193.429 Y145.345 E181.9171
M205 X10 Y10
G0 F6000 X193.429 Y145.911
M205 X8 Y8
G1 F1200 X171.587 Y124.07 E183.45814
M205 X10 Y10
G0 F6000 X171.022 Y124.07
M205 X8 Y8
G1 F1200 X193.429 Y146.477 E185.03908
M205 X10 Y10
G0 F6000 X193.429 Y147.042
M205 X8 Y8
G1 F1200 X170.456 Y124.07 E186.65991
M205 X10 Y10
G0 F6000 X169.89 Y124.07
M205 X8 Y8
G1 F1200 X193.429 Y147.608 E188.32068
M205 X10 Y10
G0 F6000 X193.429 Y148.174
M205 X8 Y8
G1 F1200 X169.325 Y124.07 E190.02135
M205 X10 Y10
G0 F6000 X168.759 Y124.07
M205 X8 Y8
G1 F1200 X193.429 Y148.739 E191.76191
M205 X10 Y10
G0 F6000 X193.429 Y149.305
M205 X8 Y8
G1 F1200 X168.193 Y124.07 E193.54241
M205 X10 Y10
G0 F6000 X167.628 Y124.07
M205 X8 Y8
G1 F1200 X193.429 Y149.871 E195.36281
M205 X10 Y10
G0 F6000 X193.429 Y150.436
M205 X8 Y8
G1 F1200 X167.062 Y124.07 E197.22311
M205 X10 Y10
G0 F6000 X166.496 Y124.07
M205 X8 Y8
G1 F1200 X170.355 Y127.929 E197.49538
M205 X10 Y10
G0 F6000 X170.569 Y128.143
M205 X8 Y8
G1 F1200 X193.429 Y151.002 E199.10825
M205 X10 Y10
G0 F6000 X193.429 Y151.568
M205 X8 Y8
G1 F1200 X170.569 Y128.708 E200.72114
M205 X10 Y10
G0 F6000 X170.569 Y129.274
M205 X8 Y8
G1 F1200 X193.429 Y152.134 E202.33404
M205 X10 Y10
G0 F6000 X193.429 Y152.699
M205 X8 Y8
G1 F1200 X170.569 Y129.84 E203.9469
M205 X10 Y10
G0 F6000 X170.569 Y130.406
M205 X8 Y8
G1 F1200 X193.429 Y153.265 E205.55976
M205 X10 Y10
G0 F6000 X193.429 Y153.831
M205 X8 Y8
G1 F1200 X170.569 Y130.971 E207.17266
