;FLAVOR:Marlin
;TIME:14765
;Filament used: 12.2568m
;Layer height: 0.2
;MINX:96.261
;MINY:78.116
;MINZ:0.3
;MAXX:203.733
;MAXY:221.884
;MAXZ:10.175
;Generated with Cura_SteamEngine master
M82 ;absolute extrusion mode
G21                                        ; metric values 
G90                                        ; absolute positioning 
M82                                        ; set extruder to absolute mode 
M107                                       ; start with the fan off 
M140 S60           ; Start heating the bed 
G4 S60                                     ; wait 1 minute 
M104 S210         ; start heating the hot end 
M190 S60           ; wait for bed 
M109 S210         ; wait for hotend 
M300 S1000 P500                            ; BEEP heating done 
G28 X0 Y10 Z0                              ; move X/Y to min endstops 
M420 S1                                    ; Enable leveling 
M420 Z2.0                                  ; Set leveling fading height to 2 mm 
G0 Z0.15                                   ; lift nozzle a bit 
G92 E0                                     ; zero the extruded length 
G1 X50 E25 F500                            ; Extrude 25mm of filament in a 5cm line. 
G92 E0                                     ; zero the extruded length again 
G1 E-2 F500                                ; Retract a little 
G1 X120 F4000                              ; Quickly wipe away from the filament line`
G92 E0
G92 E0
G1 F1500 E-6
;LAYER_COUNT:50
;LAYER:0
M106 S76.5
M205 X10 Y10
G1 F600 Z0.375
G0 F6000 X98.088 Y100.232 Z0.375
M205 X8 Y8
;TYPE:SKIRT
G1 F600 Z0.3
G1 F1500 E0
G1 F1200 X98.614 Y99.747 E0.0357
G1 X99.374 Y99.209 E0.08215
G1 X100.169 Y98.729 E0.12848
G1 X102.452 Y97.308 E0.26264
G1 X104.637 Y95.861 E0.39339
G1 X106.812 Y94.328 E0.52615
G1 X108.911 Y92.76 E0.65686
G1 X111.006 Y91.101 E0.79018
G1 X113.021 Y89.409 E0.92145
G1 X115.031 Y87.621 E1.05566
G1 X116.923 Y85.842 E1.18523
G1 X118.81 Y83.961 E1.31816
G1 X120.638 Y82.036 E1.4506
G1 X122.257 Y80.24 E1.57123
G1 X122.765 Y79.736 E1.60693
G1 X123.326 Y79.292 E1.64263
G1 X123.933 Y78.914 E1.6783
G1 X124.578 Y78.605 E1.71398
G1 X125.254 Y78.371 E1.74967
G1 X125.952 Y78.213 E1.78538
G1 X126.832 Y78.127 E1.82949
G1 X127.333 Y78.116 E1.85449
G1 X138.401 Y78.116 E2.40668
G1 X139.204 Y78.127 E2.44674
G1 X139.387 Y78.132 E2.45587
G1 X139.895 Y78.154 E2.48124
G1 X142.557 Y78.23 E2.6141
G1 X145.201 Y78.23 E2.74601
G1 X147.922 Y78.154 E2.88182
G1 X148.268 Y78.138 E2.8991
G1 X148.904 Y78.119 E2.93084
G1 X149.095 Y78.116 E2.94037
G1 X160.254 Y78.117 E3.4971
G1 X160.956 Y78.127 E3.53212
G1 X161.67 Y78.177 E3.56783
G1 X162.373 Y78.306 E3.60349
G1 X163.058 Y78.513 E3.63919
G1 X163.715 Y78.796 E3.67488
G1 X164.337 Y79.149 E3.71056
G1 X164.915 Y79.57 E3.74624
G1 X165.443 Y80.053 E3.78194
G1 X165.913 Y80.592 E3.81762
G1 X166.165 Y80.938 E3.83897
G1 X166.571 Y81.538 E3.87512
G1 X168.086 Y83.708 E4.00715
G1 X169.685 Y85.868 E4.14123
G1 X171.295 Y87.918 E4.27128
G1 X173.014 Y89.983 E4.40532
G1 X174.761 Y91.966 E4.53717
G1 X176.545 Y93.878 E4.66764
G1 X178.418 Y95.776 E4.80067
G1 X180.327 Y97.603 E4.9325
G1 X182.299 Y99.386 E5.06514
G1 X184.31 Y101.104 E5.19709
G1 X186.374 Y102.769 E5.32939
G1 X188.473 Y104.365 E5.46095
G1 X190.827 Y106.043 E5.60517
G1 X191.645 Y106.639 E5.65567
G1 X192.235 Y107.082 E5.69247
G1 X192.759 Y107.486 E5.72549
G1 X193.044 Y107.719 E5.74385
G1 X193.704 Y108.293 E5.78749
G1 X194.114 Y108.659 E5.81491
G1 X194.596 Y109.101 E5.84754
G1 X194.869 Y109.367 E5.86655
G1 X195.51 Y110.031 E5.9126
G1 X195.86 Y110.405 E5.93815
G1 X196.327 Y110.919 E5.9728
G1 X196.555 Y111.184 E5.99024
G1 X197.037 Y111.778 E6.0284
G1 X197.288 Y112.096 E6.04862
G1 X197.715 Y112.655 E6.08371
G1 X197.909 Y112.923 E6.10022
G1 X198.346 Y113.562 E6.13884
G1 X198.585 Y113.924 E6.16048
G1 X198.941 Y114.478 E6.19333
G1 X199.137 Y114.803 E6.21227
G1 X199.627 Y115.678 E6.2623
G1 X199.884 Y116.156 E6.28938
G1 X200.192 Y116.744 E6.32249
G1 X200.363 Y117.097 E6.34206
G1 X200.789 Y118.048 E6.39405
G1 X200.993 Y118.527 E6.42002
G1 X201.261 Y119.177 E6.4551
G1 X201.391 Y119.521 E6.47345
G1 X201.665 Y120.314 E6.51531
G1 X201.928 Y121.116 E6.55741
G1 X202.143 Y121.8 E6.59318
G1 X202.383 Y122.688 E6.63908
G1 X202.689 Y123.958 E6.70425
G1 X202.861 Y124.732 E6.74381
G1 X202.986 Y125.407 E6.77806
G1 X203.232 Y126.928 E6.85493
G1 X203.329 Y127.592 E6.8884
G1 X203.352 Y127.771 E6.89741
G1 X203.452 Y128.623 E6.94021
G1 X203.474 Y128.843 E6.95124
G1 X203.645 Y130.917 E7.05506
G1 X203.659 Y131.124 E7.06541
G1 X203.704 Y132.026 E7.11047
G1 X203.71 Y132.206 E7.11945
G1 X203.724 Y132.845 E7.15134
G1 X203.733 Y134.051 E7.21151
G1 X203.729 Y134.729 E7.24534
G1 X203.708 Y135.347 E7.27619
G1 X203.628 Y136.585 E7.33808
G1 X203.567 Y137.358 E7.37676
G1 X203.512 Y137.872 E7.40255
G1 X203.454 Y138.311 E7.42465
G1 X203.317 Y139.256 E7.47228
G1 X203.212 Y139.922 E7.50592
G1 X203.145 Y140.282 E7.52419
G1 X202.965 Y141.107 E7.56632
G1 X202.836 Y141.656 E7.59445
G1 X202.659 Y142.369 E7.63111
G1 X202.562 Y142.718 E7.64918
G1 X202.284 Y143.616 E7.69608
G1 X202.145 Y144.038 E7.71824
G1 X201.911 Y144.718 E7.75412
G1 X201.051 Y147.343 E7.89193
G1 X200.309 Y149.843 E8.02203
G1 X199.629 Y152.399 E8.15399
G1 X199.009 Y155.021 E8.28841
G1 X198.473 Y157.612 E8.42041
G1 X198.019 Y160.181 E8.55057
G1 X197.631 Y162.808 E8.68305
G1 X197.317 Y165.434 E8.81499
G1 X197.078 Y168.072 E8.94714
G1 X196.912 Y170.729 E9.07996
G1 X196.833 Y172.87 E9.18685
G1 X196.805 Y173.923 E9.2394
G1 X196.78 Y174.549 E9.27066
G1 X196.754 Y174.922 E9.28931
G1 X196.658 Y175.886 E9.33764
G1 X196.597 Y176.414 E9.36416
G1 X196.507 Y177.101 E9.39873
G1 X196.453 Y177.441 E9.4159
G1 X196.304 Y178.239 E9.4564
G1 X196.188 Y178.811 E9.48552
G1 X196.051 Y179.448 E9.51803
G1 X195.96 Y179.816 E9.53694
G1 X195.711 Y180.709 E9.58319
G1 X195.584 Y181.139 E9.60556
G1 X195.371 Y181.828 E9.64154
G1 X195.254 Y182.173 E9.65972
G1 X194.962 Y182.954 E9.70131
G1 X194.759 Y183.473 E9.72912
G1 X194.535 Y184.022 E9.7587
G1 X194.384 Y184.362 E9.77726
G1 X193.934 Y185.303 E9.8293
G1 X193.767 Y185.637 E9.84793
G1 X193.498 Y186.159 E9.87723
G1 X193.306 Y186.505 E9.89697
G1 X192.776 Y187.393 E9.94856
G1 X192.577 Y187.712 E9.96732
G1 X192.229 Y188.257 E9.99958
G1 X191.8 Y188.882 E10.0374
G1 X191.315 Y189.532 E10.07786
G1 X190.922 Y190.031 E10.10955
G1 X190.536 Y190.494 E10.13962
G1 X190.319 Y190.741 E10.15603
G1 X189.911 Y191.182 E10.186
G1 X189.426 Y191.69 E10.22104
G1 X188.945 Y192.181 E10.25533
G1 X188.383 Y192.704 E10.29363
G1 X188.257 Y192.816 E10.30204
G1 X185.746 Y194.97 E10.46709
G1 X183.793 Y196.74 E10.59859
G1 X181.887 Y198.569 E10.73038
G1 X180.009 Y200.474 E10.86384
G1 X178.221 Y202.396 E10.99481
G1 X176.483 Y204.375 E11.12621
G1 X174.784 Y206.419 E11.25881
G1 X173.14 Y208.516 E11.39175
G1 X171.572 Y210.638 E11.52339
G1 X170.063 Y212.807 E11.65521
G1 X168.604 Y215.032 E11.78795
G1 X167.228 Y217.27 E11.91902
G1 X166.39 Y218.703 E12.00184
G1 X165.995 Y219.3 E12.03756
G1 X165.536 Y219.848 E12.07322
G1 X165.019 Y220.342 E12.10889
G1 X164.449 Y220.775 E12.14461
G1 X163.835 Y221.142 E12.18029
G1 X163.184 Y221.439 E12.21599
G1 X162.504 Y221.66 E12.25166
G1 X161.804 Y221.805 E12.28733
G1 X161.061 Y221.871 E12.32454
G1 X160.54 Y221.884 E12.35054
G1 X149.382 Y221.883 E12.90722
G1 X148.67 Y221.873 E12.94274
G1 X148.487 Y221.868 E12.95188
G1 X147.978 Y221.846 E12.97729
G1 X145.316 Y221.77 E13.11016
G1 X142.673 Y221.77 E13.24202
G1 X139.953 Y221.846 E13.37777
G1 X139.605 Y221.862 E13.39515
G1 X138.969 Y221.881 E13.4269
G1 X138.778 Y221.884 E13.43643
G1 X127.619 Y221.883 E13.99315
G1 X126.917 Y221.873 E14.02818
G1 X126.203 Y221.823 E14.06389
G1 X125.5 Y221.694 E14.09954
G1 X124.815 Y221.487 E14.13525
G1 X124.158 Y221.204 E14.17093
G1 X123.536 Y220.851 E14.20662
G1 X122.958 Y220.43 E14.24229
G1 X122.266 Y219.772 E14.28993
G1 X121.811 Y219.27 E14.32373
G1 X119.997 Y217.324 E14.45646
G1 X118.125 Y215.427 E14.58942
G1 X116.216 Y213.599 E14.72129
G1 X114.257 Y211.826 E14.85311
G1 X112.229 Y210.092 E14.98623
G1 X110.175 Y208.434 E15.11792
G1 X108.075 Y206.835 E15.2496
G1 X105.929 Y205.295 E15.38138
G1 X103.712 Y203.798 E15.51484
G1 X101.503 Y202.394 E15.64543
G1 X99.552 Y201.231 E15.75874
G1 X99.321 Y201.089 E15.77227
G1 X98.734 Y200.681 E15.80794
G1 X98.196 Y200.21 E15.84361
G1 X97.713 Y199.682 E15.87931
G1 X97.293 Y199.103 E15.915
G1 X96.946 Y198.493 E15.95001
G1 X96.662 Y197.837 E15.98567
G1 X96.453 Y197.152 E16.0214
G1 X96.323 Y196.449 E16.05707
G1 X96.273 Y195.811 E16.089
G1 X96.261 Y195.311 E16.11395
G1 X96.262 Y183.349 E16.71074
G1 X96.273 Y182.643 E16.74596
G1 X96.324 Y181.93 E16.78163
G1 X96.454 Y181.227 E16.81729
G1 X96.667 Y180.529 E16.8537
G1 X96.959 Y179.737 E16.89582
G1 X97.832 Y177.262 E17.02675
G1 X98.653 Y174.71 E17.1605
G1 X99.383 Y172.196 E17.2911
G1 X100.057 Y169.601 E17.42486
G1 X100.651 Y167.019 E17.55704
G1 X101.171 Y164.421 E17.68923
G1 X101.617 Y161.819 E17.82094
G1 X101.988 Y159.212 E17.95231
G1 X102.287 Y156.578 E18.08456
G1 X102.509 Y153.951 E18.21609
G1 X102.659 Y151.305 E18.34831
G1 X102.734 Y148.632 E18.48172
G1 X102.734 Y145.988 E18.61363
G1 X102.659 Y143.379 E18.74385
G1 X102.508 Y140.707 E18.87737
G1 X102.284 Y138.076 E19.00911
G1 X101.984 Y135.444 E19.14127
G1 X101.61 Y132.822 E19.2734
G1 X101.165 Y130.225 E19.40486
G1 X100.636 Y127.592 E19.53884
G1 X100.054 Y125.059 E19.66851
G1 X99.386 Y122.496 E19.80065
G1 X99.173 Y121.76 E19.83887
G1 X98.822 Y120.505 E19.90389
G1 X98.689 Y119.928 E19.93343
G1 X98.544 Y119.132 E19.9738
G1 X98.517 Y118.974 E19.98179
G1 X98.369 Y118.028 E20.02956
G1 X97.145 Y110.682 E20.40111
G1 X96.779 Y108.62 E20.50559
G1 X96.668 Y108.024 E20.53584
G1 X96.523 Y107.187 E20.57822
G1 X96.434 Y106.567 E20.60947
G1 X96.322 Y105.558 E20.66011
G1 X96.283 Y104.931 E20.69146
G1 X96.281 Y104.768 E20.69959
G1 X96.313 Y104.053 E20.7353
G1 X96.423 Y103.346 E20.77099
G1 X96.612 Y102.656 E20.80668
G1 X96.877 Y101.992 E20.84235
G1 X97.214 Y101.361 E20.87804
G1 X97.62 Y100.772 E20.91373
G1 X98.088 Y100.232 E20.94938
M205 X10 Y10
G0 F6000 X98.484 Y100.401
M205 X8 Y8
G1 F1200 X99.006 Y99.946 E20.98393
G1 X99.581 Y99.552 E21.0187
G1 X100.393 Y99.062 E21.06602
G1 X102.621 Y97.674 E21.19698
G1 X104.875 Y96.182 E21.33184
G1 X107.043 Y94.654 E21.46416
G1 X109.193 Y93.048 E21.59805
G1 X111.228 Y91.436 E21.72757
G1 X113.298 Y89.698 E21.86242
G1 X115.288 Y87.928 E21.99529
G1 X117.215 Y86.117 E22.12722
G1 X119.082 Y84.255 E22.25877
G1 X120.942 Y82.297 E22.39351
G1 X122.554 Y80.508 E22.51365
G1 X123.047 Y80.021 E22.54822
G1 X123.592 Y79.594 E22.58276
G1 X124.183 Y79.233 E22.61731
G1 X124.812 Y78.943 E22.65187
G1 X125.47 Y78.726 E22.68643
G1 X126.148 Y78.587 E22.72096
G1 X126.843 Y78.527 E22.75577
G1 X127.333 Y78.516 E22.78022
G1 X138.401 Y78.516 E23.3324
G1 X139.198 Y78.527 E23.37217
G1 X139.866 Y78.552 E23.40552
G1 X142.581 Y78.63 E23.54103
G1 X145.212 Y78.63 E23.67229
G1 X147.907 Y78.555 E23.80679
G1 X148.28 Y78.538 E23.82542
G1 X148.916 Y78.519 E23.85717
G1 X149.095 Y78.516 E23.8661
G1 X160.248 Y78.517 E24.42252
G1 X160.95 Y78.527 E24.45755
G1 X161.641 Y78.576 E24.49211
G1 X162.322 Y78.705 E24.52669
G1 X162.983 Y78.912 E24.56125
G1 X163.615 Y79.194 E24.59577
G1 X164.212 Y79.546 E24.63035
G1 X164.763 Y79.965 E24.66489
G1 X165.263 Y80.444 E24.69943
G1 X165.834 Y81.163 E24.74524
G1 X166.233 Y81.753 E24.78077
G1 X167.781 Y83.97 E24.91567
G1 X169.351 Y86.091 E25.04733
G1 X170.989 Y88.176 E25.17961
G1 X172.69 Y90.22 E25.31228
G1 X174.452 Y92.219 E25.44522
G1 X176.285 Y94.185 E25.57932
G1 X178.14 Y96.063 E25.71101
G1 X180.064 Y97.906 E25.84394
G1 X182.016 Y99.671 E25.97523
G1 X184.066 Y101.422 E26.10973
G1 X186.126 Y103.084 E26.24179
G1 X188.207 Y104.666 E26.3722
G1 X190.591 Y106.366 E26.51828
G1 X191.406 Y106.96 E26.5686
G1 X191.991 Y107.398 E26.60506
G1 X192.515 Y107.802 E26.63807
G1 X192.782 Y108.021 E26.6553
G1 X193.438 Y108.591 E26.69865
G1 X193.843 Y108.954 E26.72579
G1 X194.325 Y109.396 E26.75841
G1 X194.582 Y109.645 E26.77627
G1 X195.218 Y110.304 E26.82196
G1 X195.564 Y110.674 E26.84723
G1 X196.031 Y111.188 E26.88188
G1 X196.244 Y111.436 E26.89819
G1 X196.723 Y112.026 E26.9361
G1 X196.97 Y112.339 E26.95599
G1 X197.397 Y112.898 E26.99109
G1 X197.579 Y113.149 E27.00656
G1 X198.012 Y113.783 E27.04486
G1 X198.249 Y114.14 E27.06624
G1 X198.605 Y114.694 E27.09909
G1 X198.788 Y114.999 E27.11684
G1 X199.275 Y115.868 E27.16654
G1 X199.53 Y116.342 E27.19339
G1 X199.838 Y116.93 E27.22651
G1 X199.998 Y117.26 E27.2448
G1 X200.421 Y118.205 E27.29646
G1 X200.623 Y118.68 E27.32221
G1 X200.891 Y119.33 E27.35728
G1 X201.013 Y119.652 E27.37446
G1 X201.285 Y120.439 E27.41601
G1 X201.547 Y121.236 E27.45786
G1 X201.762 Y121.92 E27.49363
G1 X201.996 Y122.788 E27.53848
G1 X202.298 Y124.045 E27.60298
G1 X202.469 Y124.813 E27.64223
G1 X202.591 Y125.474 E27.67577
G1 X202.822 Y126.892 E27.74745
G1 X202.933 Y127.65 E27.78567
G1 X202.955 Y127.818 E27.79412
G1 X203.055 Y128.67 E27.83692
G1 X203.076 Y128.876 E27.84725
G1 X203.247 Y130.95 E27.95107
G1 X203.26 Y131.144 E27.96077
G1 X203.305 Y132.046 E28.00583
G1 X203.311 Y132.215 E28.01426
G1 X203.324 Y132.849 E28.0459
G1 X203.333 Y134.048 E28.10572
G1 X203.329 Y134.726 E28.13955
G1 X203.309 Y135.321 E28.16925
G1 X203.229 Y136.554 E28.23089
G1 X203.168 Y137.327 E28.26958
G1 X203.069 Y138.172 E28.31202
G1 X202.922 Y139.193 E28.36349
G1 X202.817 Y139.859 E28.39712
G1 X202.754 Y140.197 E28.41428
G1 X202.575 Y141.017 E28.45615
G1 X202.448 Y141.56 E28.48397
G1 X202.271 Y142.273 E28.52062
G1 X202.18 Y142.6 E28.53756
G1 X201.903 Y143.492 E28.58416
G1 X201.767 Y143.907 E28.60594
G1 X201.531 Y144.594 E28.64218
G1 X200.67 Y147.22 E28.78006
G1 X199.915 Y149.763 E28.9124
G1 X199.238 Y152.309 E29.04384
G1 X198.63 Y154.886 E29.17593
G1 X198.075 Y157.566 E29.31248
G1 X197.623 Y160.124 E29.44207
G1 X197.237 Y162.734 E29.5737
G1 X196.916 Y165.422 E29.70876
G1 X196.678 Y168.047 E29.84026
G1 X196.513 Y170.69 E29.97238
G1 X196.433 Y172.855 E30.08046
G1 X196.405 Y173.907 E30.13297
G1 X196.38 Y174.533 E30.16422
G1 X196.356 Y174.883 E30.18172
G1 X196.261 Y175.84 E30.2297
G1 X196.2 Y176.362 E30.25592
G1 X196.11 Y177.049 E30.29049
G1 X196.06 Y177.368 E30.3066
G1 X195.912 Y178.16 E30.3468
G1 X195.797 Y178.727 E30.37566
G1 X195.66 Y179.364 E30.40817
G1 X195.575 Y179.709 E30.42589
G1 X195.328 Y180.596 E30.47183
G1 X195.202 Y181.021 E30.49395
G1 X194.989 Y181.71 E30.52993
G1 X194.879 Y182.033 E30.54695
G1 X194.59 Y182.808 E30.58821
G1 X194.388 Y183.322 E30.61577
G1 X194.164 Y183.871 E30.64535
G1 X194.023 Y184.19 E30.66275
G1 X193.576 Y185.125 E30.71445
G1 X193.411 Y185.453 E30.73277
G1 X193.142 Y185.975 E30.76207
G1 X192.962 Y186.3 E30.7806
G1 X192.435 Y187.182 E30.83186
G1 X192.24 Y187.497 E30.85035
G1 X191.892 Y188.042 E30.88261
G1 X191.48 Y188.643 E30.91896
G1 X190.995 Y189.293 E30.95942
G1 X190.615 Y189.775 E30.99004
G1 X190.229 Y190.238 E31.02012
G1 X190.026 Y190.469 E31.03546
G1 X189.621 Y190.906 E31.06518
G1 X189.14 Y191.41 E31.09994
G1 X188.659 Y191.901 E31.13423
G1 X188.115 Y192.408 E31.17133
G1 X187.997 Y192.512 E31.17918
G1 X185.481 Y194.67 E31.34455
G1 X183.532 Y196.437 E31.4758
G1 X181.589 Y198.301 E31.61013
G1 X179.714 Y200.204 E31.74341
G1 X177.927 Y202.125 E31.87431
G1 X176.175 Y204.119 E32.00674
G1 X174.477 Y206.162 E32.13927
G1 X172.819 Y208.277 E32.27335
G1 X171.255 Y210.393 E32.40462
G1 X169.727 Y212.589 E32.53809
G1 X168.272 Y214.809 E32.67052
G1 X166.868 Y217.09 E32.80414
G1 X166.044 Y218.501 E32.88566
G1 X165.661 Y219.078 E32.92022
G1 X165.214 Y219.607 E32.95477
G1 X164.708 Y220.081 E32.98936
G1 X164.152 Y220.493 E33.02388
G1 X163.552 Y220.838 E33.05841
G1 X162.916 Y221.112 E33.09296
G1 X162.252 Y221.311 E33.12754
G1 X161.571 Y221.432 E33.16205
G1 X161.049 Y221.471 E33.18817
G1 X160.54 Y221.484 E33.21357
G1 X149.388 Y221.483 E33.76995
G1 X148.504 Y221.469 E33.81405
G1 X148.007 Y221.448 E33.83887
G1 X145.292 Y221.37 E33.97438
G1 X142.662 Y221.37 E34.10559
G1 X139.968 Y221.445 E34.24005
G1 X139.593 Y221.462 E34.25877
G1 X138.957 Y221.481 E34.29052
G1 X138.778 Y221.484 E34.29945
G1 X127.625 Y221.483 E34.85588
